X:13
T:Cronin's
Z: id:dc-hornpipe-12
M:C|
L:1/8
K:G Major
BA|GABc d^cdf|gage dega|bage dBGB|BAAG AcBA|!
GABc d^cdf|gage dega|bage dBAB|G2GF G2:|!
fg|add^c d2ga|bee^d e2ga|bgaf gedB|BAAG AcBA|!
GABc d^cdf|gage dega|bage dBAB|G2GF G2:|!

